X: 1
T: MOUNT YOUR BAGGAGE -- JIG
B: Ryan's Mammoth Collection of Fiddle Tunes
R: jig
M: 6/8
L: 1/8
Z: Contributed 20010526030438 by John Chambers jc:trillian.mit.edu
K: Am
uE \
| ABA  ABd | ege dBG | BAB GAG | BAB GAB \
| A>BA ABd | ede a2g | edc Bcd | ecA A2 :|
|: u^g \
| {b}a^ga ABA | {b}a^ga A2^f | g2G GAG | BAB GAB \
|    cBc  dcd |    ecA  Bcd  | edc Bcd | ecA A2 :|
